X:1
T:Title
%%score { ( 1 3 ) | 2 }
L:1/8
M:6/8
K:A
V:1 treble nm="Grand Piano"
V:3 treble 
V:2 bass 
V:1
 z3 z2[Q:1/4=100] [CE] | [CA]2 [CA] [CE]2 [CF] | [DG]2 [DG] [DG]2 E | d2 d c2 B |[M:5/8] c-c- c3 | %5
[M:1/8] [CE] |[M:3/4] [CA]2 [CA] [A,CE]2 [CEF] | [EG]2 [EG] [EG]2 [EB] | [^DB]2 [DF] [DB]2 [Dc] | %9
 [EB]6 | c4 z2 | A4 z2 | [CE]2 [CA] [Ec]2 [Ec] |[M:5/8] B-B- B3 |[M:1/8] d |[M:3/4] c2 B A2 [EG] | %16
[M:7/8] [DF][FB][Fc] [Fd]3 [Ed] |[M:3/4] [Ec]2 [DFB] [CEA]2 [B,DG] | %18
[M:5/8] [A,CA]-[A,CA]- [A,CA]3 |] %19
V:2
 z3 z2 [A,,A,] | [A,,E,]2 [A,,E,] [A,,A,]2 [A,,F,] | [B,,E,]2 [B,,E,] [B,,E,]2 [E,G,] | %3
 [E,B,E]2 [E,G,E] [F,A,E]2 [G,B,E] |[M:5/8] [A,E]-[A,E]- [A,E]3 |[M:1/8] [A,,A,] | %6
[M:3/4] [A,,E,]2 [A,,E,] A,,2 A,, | [B,,B,]2 [B,,B,] [B,,B,]2 [B,,G,] | %8
 [B,,F,]2 [B,,B,] [B,,A,]2 [B,,A,] | [E,G,]6 | [A,,A,]2 [A,,A,][A,,A,]- [A,,A,]/[A,,A,]/[A,,A,] | %11
 D,2 D,D,- D,/D,/D, | [A,,A,]2 [A,,A,] [A,,A,]2 [A,,A,] |[M:5/8] [E,G,E]-[E,G,E]- [E,G,E]3 | %14
[M:1/8] [G,B,E] |[M:3/4] [A,E]2 [E,G,D] [F,A,C]2 [C,A,] |[M:7/8] [D,A,]2 [C,^A,] [B,,B,]3 [E,G,] | %17
[M:3/4] A,2 D, E,2 E, |[M:5/8] A,,-A,,- A,,3 |] %19
V:3
 x6 | x6 | x6 | x6 |[M:5/8] x5 |[M:1/8] x |[M:3/4] x6 | x6 | x6 | x6 | E2 E[Ec]- [Ec]/[DB]/[CA] | %11
 [A,F]2 [A,F][A,FA]- [A,FA]/[A,EG]/[A,DF] | x6 |[M:5/8] x5 |[M:1/8] x |[M:3/4] x6 |[M:7/8] x7 | %17
[M:3/4] x6 |[M:5/8] x5 |] %19

